X: 343
%
U:~=!turn!
T: Lord Dreghorn's Quickstep
C:R. Macintosh
O:Scotland
B:Keith Norman MacDonald : "The Skye collection of the best reels & strathspeys extant" : 1887
Z:Ralph Palmer
R:Jig
M:6/8
L:1/8
K:D
A | d3 ABc | dAG FED | d3 Bcd | efd cBA | d3 Adc | BAG FED | GFG EAG | FDD D2 :|
A | TF>ED AFD | GBd dBG | TF>ED AGF | TE3 A,2 G | TF>ED AFD | GBd dBG | Ace gfe | fdd d2 A |
F>ED AFD | GBd dBG | TF>ED AGF | E3 A,2 E | FED GFE | AGF BAG | Aag fge | fdd d2 |]


